svgs/solid/bells.svg

<svg xmlns="http://www.w3.org/2000/svg" viewBox="0 0 640 512"><!-- Font Awesome Pro 6.0.0-alpha2 by @fontawesome - https://fontawesome.com License - https://fontawesome.com/license (Commercial License) --><path d="M241.997 253.875C214.124 177.263 246.997 93.277 315.742 54.159C307.242 48.535 298.243 43.661 288.244 40.036C218.998 14.916 142.504 50.66 117.255 119.773C116.505 121.898 102.631 160.266 101.881 162.391C72.758 242.502 35.511 256.75 14.512 267.373C-5.611 277.746 -4.986 307.991 17.512 316.24L260.746 404.725C269.245 385.603 280.244 359.232 257.496 296.618C247.746 269.623 251.246 279.496 241.997 253.875ZM138.129 444.218C165.752 454.216 195.625 443.843 211.874 420.972L96.507 378.979C94.257 406.849 110.381 434.095 138.129 444.218ZM501.854 476.213C529.477 466.089 545.726 438.969 543.476 410.974L428.109 452.967C444.358 475.713 474.231 486.211 501.854 476.213ZM625.596 299.368C604.597 288.744 567.225 274.497 538.227 194.385C537.352 192.261 523.478 153.892 522.728 151.768C497.479 82.654 420.985 46.91 351.739 72.156C282.619 97.277 246.872 173.764 272.12 243.002C272.87 245.127 286.869 283.37 287.744 285.62C316.867 365.731 297.368 400.475 288.244 422.222C279.369 442.843 299.368 465.714 321.866 457.591L622.471 348.234C642.97 340.736 647.344 310.616 625.596 299.368Z"/></svg>

<svg xmlns="http://www.w3.org/2000/svg" viewBox="0 0 640 512"><!-- Font Awesome Pro 5.15.1 by @fontawesome - https://fontawesome.com License - https://fontawesome.com/license (Commercial License) --><path d="M242 253.9c-27.9-76.7 5-160.6 73.7-199.8-8.5-5.6-17.5-10.5-27.4-14.1-69.3-25.1-145.8 10.6-171 79.8-.8 2.1-14.7 40.4-15.4 42.6-29.2 80.1-66.4 94.3-87.4 105-20.1 10.3-19.5 40.6 3 48.8l243.3 88.6c8.4-19.2 19.5-45.6-3.3-108.2-9.8-27-6.2-17.1-15.5-42.7zM138.1 444.2c27.6 10.1 57.5-.3 73.8-23.2L96.5 379c-2.3 27.9 13.9 55.1 41.6 65.2zm363.8 32c27.6-10.1 43.9-37.2 41.6-65.2l-115.4 42c16.3 22.8 46.2 33.2 73.8 23.2zm123.7-176.8c-21-10.7-58.3-24.9-87.4-105-.8-2.2-14.7-40.5-15.4-42.6-25.3-69.2-101.8-104.9-171-79.7-69.2 25.2-104.9 101.7-79.7 170.9.8 2.1 14.8 40.4 15.6 42.6 29.2 80.1 9.7 114.9.5 136.6-8.8 20.7 11.2 43.6 33.7 35.4l300.6-109.4c20.5-7.5 24.9-37.6 3.1-48.8z"/></svg>
